icons/evolvere-blue-folders-flat-vivid-dark-fallback/apps/64/banshee.svg

<?xml version="1.0" encoding="UTF-8" standalone="no"?>
<!-- Created with Inkscape (http://www.inkscape.org/) -->

<svg
   xmlns:dc="http://purl.org/dc/elements/1.1/"
   xmlns:cc="http://creativecommons.org/ns#"
   xmlns:rdf="http://www.w3.org/1999/02/22-rdf-syntax-ns#"
   xmlns:svg="http://www.w3.org/2000/svg"
   xmlns="http://www.w3.org/2000/svg"
   xmlns:sodipodi="http://sodipodi.sourceforge.net/DTD/sodipodi-0.dtd"
   xmlns:inkscape="http://www.inkscape.org/namespaces/inkscape"
   width="64"
   height="64"
   id="svg13094"
   version="1.1"
   inkscape:version="0.91+devel r"
   sodipodi:docname="banshee.svg">
  <sodipodi:namedview
     id="base"
     pagecolor="#ffffff"
     bordercolor="#666666"
     borderopacity="1.0"
     inkscape:pageopacity="0"
     inkscape:pageshadow="2"
     inkscape:zoom="11.313709"
     inkscape:cx="40.178499"
     inkscape:cy="33.313384"
     inkscape:document-units="px"
     inkscape:current-layer="svg13094"
     showgrid="true"
     inkscape:snap-bbox="true"
     inkscape:bbox-paths="true"
     inkscape:bbox-nodes="true"
     inkscape:snap-bbox-edge-midpoints="true"
     inkscape:snap-bbox-midpoints="true"
     inkscape:object-paths="true"
     inkscape:snap-intersection-paths="true"
     inkscape:object-nodes="true"
     inkscape:snap-smooth-nodes="true"
     inkscape:snap-midpoints="true"
     inkscape:snap-object-midpoints="true"
     inkscape:snap-center="true"
     showguides="true"
     inkscape:guide-bbox="true"
     inkscape:window-width="1920"
     inkscape:window-height="1023"
     inkscape:window-x="-10"
     inkscape:window-y="35"
     inkscape:window-maximized="1"
     inkscape:snap-global="true"
     fit-margin-top="0"
     fit-margin-left="0"
     fit-margin-right="0"
     fit-margin-bottom="0"
     showborder="true"
     inkscape:showpageshadow="false"
     inkscape:snap-page="true">
    <inkscape:grid
       originy="18px"
       originx="1.6362304e-08px"
       snapvisiblegridlinesonly="true"
       enabled="true"
       visible="true"
       empspacing="5"
       id="grid3075"
       type="xygrid" />
  </sodipodi:namedview>
  <defs
     id="defs13096" />
  <metadata
     id="metadata13099">
    <rdf:RDF>
      <cc:Work
         rdf:about="">
        <dc:format>image/svg+xml</dc:format>
        <dc:type
           rdf:resource="http://purl.org/dc/dcmitype/StillImage" />
        <dc:title></dc:title>
      </cc:Work>
    </rdf:RDF>
  </metadata>
  <path
     inkscape:connector-curvature="0"
     style="color:#000000;fill:#3280c9;fill-opacity:1;fill-rule:nonzero;stroke:none;stroke-width:2.28571415;marker:none;visibility:visible;display:inline;overflow:visible;enable-background:accumulate"
     d="m 0,4 0,30 0,28 2,2 30,0 30,0 2,-2 L 64,34 64,4 32,4 0,4 z"
     id="path3983" />
  <path
     id="path6502"
     d="M 2 0 L 0 1 L 0 4 L 32 4 L 64 4 L 64 1 L 62 0 L 32 0 L 2 0 z "
     style="color:#000000;fill:#61c4f6;fill-opacity:1;fill-rule:nonzero;stroke:none;marker:none;visibility:visible;display:inline;overflow:visible;enable-background:accumulate" />
  <rect
     style="color:#000000;fill:#ffffff;fill-opacity:1;fill-rule:nonzero;stroke:none;stroke-width:2;marker:none;visibility:visible;display:inline;overflow:visible;enable-background:accumulate"
     id="rect3124"
     width="5"
     height="4"
     x="21"
     y="0" />
  <path
     inkscape:connector-curvature="0"
     style="fill:#49a0de;fill-opacity:1"
     id="path3028"
     d="M 64,6 62,4 64,3 z" />
  <g
     transform="translate(-0.62500009,0.082283)"
     inkscape:export-ydpi="90"
     inkscape:export-xdpi="90"
     inkscape:export-filename="folder.png"
     id="g3043" />
  <g
     style="fill:#ffffff"
     inkscape:label="#g3701"
     transform="matrix(1.0385892,0,0,1.0385892,1214.7222,1878.8121)"
     id="scalable" />
  <path
     id="path4298"
     d="M 0,3 0,6 2,4 Z"
     style="fill:#7fd4ff;fill-opacity:1;fill-rule:nonzero"
     inkscape:connector-curvature="0"
     sodipodi:nodetypes="cccc" />
  <path
     style="color:#000000;fill:#d2e5f6;fill-opacity:1;fill-rule:nonzero;stroke:none;stroke-width:2;marker:none;visibility:visible;display:inline;overflow:visible;enable-background:accumulate"
     d="M 21 4 L 21 34 C 21 40.075132 25.924868 45 32 45 C 38.075132 45 43 40.075132 43 34 C 43 27.924868 38.075132 23 32 23 C 29.786683 23 27.725433 23.656405 26 24.78125 L 26 4 L 21 4 z M 32 16 C 30.975101 16 29.978118 16.116704 29 16.28125 L 29 20.34375 C 29.971172 20.130574 30.964816 20 32 20 C 39.731987 20 46 26.268013 46 34 C 46 41.731987 39.731987 48 32 48 C 24.268013 48 18 41.731987 18 34 L 18 22.71875 C 15.50774 25.807288 14 29.722294 14 34 C 14 43.941125 22.058875 52 32 52 C 41.941125 52 50 43.941125 50 34 C 50 24.058875 41.941125 16 32 16 z "
     id="rect3110" />
</svg>

<svg xmlns="http://www.w3.org/2000/svg" viewBox="0 0 64 64"><g color="#000"><path d="m0 4v30 28l2 2h30 30l2-2v-28-30h-32-32" fill="#3280c9"/><path d="m2 0l-2 1v3h32 32v-3l-2-1h-30-30" fill="#61c4f6"/><path fill="#fff" d="m21 0h5v4h-5z"/></g><path d="m64 6l-2-2 2-1z" fill="#49a0de"/><path d="m0 3v3l2-2" fill="#7fd4ff"/><path d="m21 4v30c0 6.075 4.925 11 11 11 6.075 0 11-4.925 11-11 0-6.075-4.925-11-11-11-2.213 0-4.275.656-6 1.781v-20.781h-5m11 12c-1.025 0-2.02.117-3 .281v4.063c.971-.213 1.965-.344 3-.344 7.732 0 14 6.268 14 14 0 7.732-6.268 14-14 14-7.732 0-14-6.268-14-14v-11.281c-2.492 3.089-4 7-4 11.281 0 9.941 8.06 18 18 18 9.941 0 18-8.06 18-18 0-9.941-8.06-18-18-18" fill="#d2e5f6" color="#000"/></svg>
